X: 817
T: Trip It Up Stairs
B:O'Neill's 817
Z:Transcribed by Dan G. Petersen, dangp@post6.tele.dk
M:6/8
L:1/8
K:G
G2A B2G|A2G FGA|B2E EFE|B2E EFE|
G2A B2^c|d2A BAG|F2D DED|F2D DED:|
d2d dAF|DFA dAF|G2E EFE|G2E EFE|
d^cd edc|d^cB ABG|F2D DED|F2D DED:|
g2g gag|f2f fgf|e2e e2g|bge e2f|
gfg agf|edc BAG|F2D DED|F2D DED:|


